X:5173
T:Polka Koketka
O:england
S:A. Humenyuk
R:Polka
Q:216
M:2/4
L:1/8
A:village of Zyatkivtsi, Vinnyts'ky
K:C
ea^ga | efed | ee c2 | dcBA | \
ea^ga | efed | eec'b | a2a2 :|
|: geae | gggB | BBdd | feee | \
geae | gggB | BBdd | c2c2 :|
P: Another Version from a differant source
K:G
Q:144
M:2/4
L:1/16
B2e2^d2e2 | c2(cB) (AB)(cA) | \
B2B2 BAGF | A2.G2.F2.E2 | \
B2e2^d2e2 | .c2(cB) (AB)c2 | \
(BA)(Bc) g2f2 | e4 e2 z2 :|
(d2^c)d .g2B2-|d2c2 (cB)(AG) | \
(FG)(AB) (cB)(ce) | e2d2 dcB2 | \
(d^c)d2 .g2B2-|d2c2 (cB)(AG) | \
(FGAB) (cdef) | g4 g4 |]
W:W:H. Tantsyur


